src/status/16/fcitx-pinyin.svg

<?xml version="1.0" encoding="UTF-8"?>
<svg width="16" height="16" version="1.1" xmlns="http://www.w3.org/2000/svg">
 <defs>
  <style id="current-color-scheme" type="text/css"/>
 </defs>
 <path d="m7.9 1.7 1.5 2-0.398 0.3h1.996l-0.398-0.3 1.5-2 0.8 0.6-1.275 1.7h2.375v1h-2v3h2v1h-2v5h-1v-5h-2.041c-0.096 1.12-0.477 2.031-0.926 2.811-0.62 1.07-1.691 2.054-1.691 2.054l-0.684-0.728s1.013-0.966 1.51-1.826c0.401-0.7 0.704-1.411 0.793-2.311h-1.961v-0.94l-1 0.5v5.44h-3v-1h2v-3.94l-1.777 0.89-0.446-0.9 2.223-1.11v-2.94h-2v-1h2v-2h1v2h1v1h-1v2.44l0.777-0.39 0.446 0.9-0.106 0.05h1.883v-3h-1v-1h1.375l-1.275-1.7zm1.1 3.3v3h2v-3z" color="#363636" fill="currentColor"/>
 <path class="ColorScheme-Text" d="m3 0c-1.662 0-3 1.338-3 3v10c0 1.662 1.338 3 3 3h9.9989c1.662 0 3-1.338 3-3v-10c0-1.662-1.338-3-3-3zm0 1h9.9989c1.108 0 2 0.892 2 2v10c0 1.108-0.892 2-2 2h-9.9989c-1.108 0-2-0.892-2-2v-10c0-1.108 0.892-2 2-2z" color="#363636" fill="currentColor"/>
</svg>

<svg xmlns="http://www.w3.org/2000/svg" width="16" height="16">
    <path fill="currentColor" fill-opacity=".7" d="m7.9 1.7 1.5 2-.398.3h1.996l-.398-.3 1.5-2 .8.6L11.625 4H14v1h-2v3h2v1h-2v5h-1V9H8.959c-.096 1.12-.477 2.031-.926 2.811-.62 1.07-1.691 2.054-1.691 2.054l-.684-.728s1.013-.966 1.51-1.826c.401-.7.704-1.411.793-2.311H6v-.94l-1 .5V14H2v-1h2V9.06l-1.777.89-.446-.9L4 7.94V5H2V4h2V2h1v2h1v1H5v2.44l.777-.39.446.9-.106.05H8V5H7V4h1.375L7.1 2.3zM9 5v3h2V5z" color="#050505"/>
    <path fill="currentColor" fill-opacity=".7" d="M3 0C1.338 0 0 1.338 0 3v10c0 1.662 1.338 3 3 3h9.999c1.662 0 3-1.338 3-3V3c0-1.662-1.338-3-3-3zm0 1h9.999c1.108 0 2 .892 2 2v10c0 1.108-.892 2-2 2H3c-1.108 0-2-.892-2-2V3c0-1.108.892-2 2-2z" class="ColorScheme-Text" color="#050505"/>
</svg>
